Catalina-light/actions/16/playlist-generator.svg

<svg xmlns="http://www.w3.org/2000/svg" width="16" height="16" viewBox="0 0 16 16">
 <defs>
  <style id="current-color-scheme" type="text/css">
   .ColorScheme-Text { color:#5c616c; } .ColorScheme-Highlight { color:#5294e2; }
  </style>
 </defs>
 <path style="fill:currentColor" class="ColorScheme-Text" d="M 3 1 A 2 2 0 0 0 1 3 A 2 2 0 0 0 3 5 A 2 2 0 0 0 5 3 A 2 2 0 0 0 3 1 z M 11.109375 1 C 10.850375 1.004 10.601969 1.1091688 10.417969 1.2929688 L 6.9179688 4.7929688 L 6.4179688 5.2929688 L 4.4179688 7.2929688 L 2.9179688 8.7929688 L 2.4179688 9.2929688 L 1.2929688 10.417969 C 0.90256875 10.807969 0.90256875 11.442031 1.2929688 11.832031 L 4.1679688 14.707031 C 4.5584688 15.097031 5.1915313 15.097031 5.5820312 14.707031 L 6.7070312 13.582031 L 7.2070312 13.082031 L 10.707031 9.5820312 L 11.207031 9.0820312 L 14.707031 5.5820312 C 15.097031 5.1915312 15.097031 4.5584687 14.707031 4.1679688 L 11.832031 1.2929688 C 11.641031 1.1015687 11.380375 0.99585 11.109375 1 z M 7.625 6.9140625 L 7.6367188 6.9257812 L 9.0742188 8.3632812 L 9.0859375 8.375 L 5.7929688 11.667969 L 5.2929688 12.167969 L 4.875 12.585938 L 3.4140625 11.125 L 3.8320312 10.707031 L 4.3320312 10.207031 L 5.8320312 8.7070312 L 7.625 6.9140625 z"/>
</svg>

<svg width="16" height="16" viewBox="0 0 16 16" xmlns="http://www.w3.org/2000/svg">
<defs>
<style id="current-color-scheme" type="text/css">.ColorScheme-Text { color:#5c616c; } .ColorScheme-Highlight { color:#5294e2; }</style>
</defs>
<path class="ColorScheme-Text" d="m3 1a2 2 0 0 0-2 2 2 2 0 0 0 2 2 2 2 0 0 0 2-2 2 2 0 0 0-2-2zm8.1094 0c-0.259 4e-3 -0.50741 0.10917-0.69141 0.29297l-9.125 9.125c-0.3904 0.39-0.3904 1.0241 0 1.4141l2.875 2.875c0.3905 0.39 1.0236 0.39 1.4141 0l9.125-9.125c0.39-0.3905 0.39-1.0236 0-1.4141l-2.875-2.875c-0.191-0.1914-0.45166-0.29712-0.72266-0.29297zm-3.4844 5.9141 0.011719 0.011719 1.4375 1.4375 0.011719 0.011719-4.2109 4.2109-1.4609-1.4609 4.2109-4.2109z" fill="currentColor"/>
</svg>
